dist/img/expert/2.svg

<svg width="223" height="42" viewBox="0 0 223 42" fill="none" xmlns="http://www.w3.org/2000/svg">
<path d="M11.3047 14.3477C14.2995 16.5938 19.3451 18.8724 26.4414 21.1836C30.3477 22.0625 32.3008 22.8763 32.3008 23.625C31.7799 25.5456 27.8737 27.8242 20.582 30.4609C18.5638 31.2422 16.6432 32.056 14.8203 32.9023C10.0677 34.1393 6.29167 36.418 3.49219 39.7383C1.18099 41.2031 0.0416667 40.7148 0.0742188 38.2734C2.74349 35.0833 5.51042 32.8047 8.375 31.4375L17.7988 27.9707C20.0775 27.4499 21.6562 26.6523 22.5352 25.5781V25.0898C22.1445 23.6901 20.5658 22.4694 17.7988 21.4277C15.0645 20.3535 12.8835 19.4095 11.2559 18.5957C9.62826 17.7493 8.55404 16.5449 8.0332 14.9824C7.54492 13.3874 8.63542 13.1758 11.3047 14.3477ZM85.5234 1.31055C87.3789 1.01758 89.1693 1.09896 90.8945 1.55469C92.6198 2.01042 93.7917 3.27995 94.4102 5.36328V6.4375C94.4102 13.0781 87.2487 20.321 72.9258 28.166C71.2331 30.5098 72.0469 32.528 75.3672 34.2207C79.7943 32.3652 83.3262 30.4772 85.9629 28.5566C88.5996 26.6035 89.9017 26.4733 89.8691 28.166C82.9681 34.6764 77.3203 37.9316 72.9258 37.9316C70.6146 35.9134 68.7266 33.7324 67.2617 31.3887C62.0859 36.6296 56.4219 39.5267 50.2695 40.0801C49.1302 39.7546 48.3815 39.0384 48.0234 37.9316C48.0234 31.7142 56.6986 26.6361 74.0488 22.6973C82.7728 19.1491 88.2741 14.0872 90.5527 7.51172C90.4551 6.01432 89.5599 5.16797 87.8672 4.97266C81.487 5.10286 77.6621 6.60026 76.3926 9.46484C75.1556 12.3294 73.235 13.485 70.6309 12.9316C69.8171 12.1504 69.6706 10.5879 70.1914 8.24414C70.7448 5.86784 75.8555 3.55664 85.5234 1.31055ZM57.0566 31.3887C53.6712 33.4395 52.0924 34.9857 52.3203 36.0273C52.5807 37.069 55.5918 36.0273 61.3535 32.9023C63.2415 30.9492 62.9648 30.1517 60.5234 30.5098L57.0566 31.3887ZM129.322 16.252C134.238 13.4199 135.898 13.5339 134.303 16.5938C132.382 18.4167 126.572 22.7135 116.871 29.4844C115.764 31.6003 115.211 33.2279 115.211 34.3672C115.211 35.474 116.676 35.474 119.605 34.3672C122.568 33.2279 126.36 30.8841 130.982 27.3359C131.959 27.4661 132.333 28.2148 132.105 29.582C131.91 30.9167 129.811 32.6094 125.807 34.6602C121.835 36.6784 118.613 37.834 116.139 38.127C113.697 38.3874 112.363 38.1432 112.135 37.3945C111.939 36.6133 112.135 34.6764 112.721 31.584L96.1191 40.0801C94.3288 40.4707 93.4987 39.7708 93.6289 37.9805C95.9727 31.763 97.6328 28.5729 98.6094 28.4102C100.53 28.2799 101.083 29.3379 100.27 31.584C97.3073 35.4577 97.3073 36.5156 100.27 34.7578C112.509 28.8984 122.193 22.7298 129.322 16.252ZM156.959 16.7402C159.726 15.5358 162.444 15.1615 165.113 15.6172C167.783 16.0404 169.133 17.8307 169.166 20.9883C169.166 25.4479 160.475 28.6217 143.092 30.5098C139.446 31.5514 137.656 32.821 137.721 34.3184C137.818 35.8158 138.486 36.7272 139.723 37.0527C140.992 37.3457 142.327 37.5573 143.727 37.6875C145.159 37.7852 150.514 36.9225 159.791 35.0996C169.068 33.2441 173.642 32.6094 173.512 33.1953C173.414 33.7487 169.02 35.1484 160.328 37.3945C151.669 39.6081 144.573 40.5033 139.039 40.0801C135.328 39.0384 133.847 36.9388 134.596 33.7812L134.986 31.584H131.715C131.454 30.8027 132.008 30.0866 133.375 29.4355C134.775 28.752 142.636 24.5202 156.959 16.7402ZM151.246 23.0879C141.122 27.4173 141.611 28.5241 152.711 26.4082C161.663 24.1947 166.139 22.2904 166.139 20.6953C166.139 19.1003 164.186 18.5143 160.279 18.9375L151.246 23.0879ZM173.512 15.666L220.484 16.5938C221.754 17.4727 221.64 18.3841 220.143 19.3281C218.645 20.2721 213.128 20.6139 203.59 20.3535L195.436 20.1582C193.352 20.2884 187.932 19.735 179.176 18.498C181.682 21.1999 182.936 25.5781 182.936 31.6328C190.064 26.0013 195.061 23.1855 197.926 23.1855C199.098 23.2832 199.423 23.9017 198.902 25.041L178.248 40.0801C176.946 40.0475 176.311 39.429 176.344 38.2246L179.176 34.4648C179.176 25.7083 176.669 19.7513 171.656 16.5938C171.559 15.7799 172.177 15.4707 173.512 15.666Z" fill="#3A4143"/>
</svg>

<svg width="223" height="42" viewBox="0 0 223 42" fill="none" xmlns="http://www.w3.org/2000/svg"><path d="M11.305 14.348c2.995 2.246 8.04 4.524 15.136 6.836 3.907.878 5.86 1.692 5.86 2.441-.521 1.92-4.427 4.2-11.719 6.836a95.935 95.935 0 00-5.762 2.441c-4.752 1.237-8.528 3.516-11.328 6.836-2.311 1.465-3.45.977-3.418-1.465 2.67-3.19 5.436-5.468 8.301-6.836l9.424-3.466c2.279-.521 3.857-1.319 4.736-2.393v-.488c-.39-1.4-1.97-2.62-4.736-3.662-2.734-1.075-4.915-2.018-6.543-2.832-1.628-.847-2.702-2.051-3.223-3.614-.488-1.595.602-1.806 3.272-.634zM85.523 1.31c1.856-.293 3.646-.212 5.371.244 1.726.455 2.898 1.725 3.516 3.808v1.074c0 6.641-7.161 13.884-21.484 21.729-1.693 2.344-.88 4.362 2.441 6.055 4.427-1.856 7.96-3.744 10.596-5.664 2.637-1.953 3.939-2.084 3.906-.391-6.9 6.51-12.549 9.766-16.943 9.766-2.311-2.019-4.2-4.2-5.664-6.543-5.176 5.24-10.84 8.138-16.992 8.691-1.14-.325-1.889-1.042-2.247-2.148 0-6.218 8.676-11.296 26.026-15.235 8.724-3.548 14.225-8.61 16.504-15.185-.098-1.498-.993-2.344-2.686-2.54-6.38.13-10.205 1.628-11.474 4.493-1.237 2.864-3.158 4.02-5.762 3.467-.814-.782-.96-2.344-.44-4.688.554-2.376 5.665-4.687 15.332-6.933zM57.057 31.389c-3.386 2.05-4.965 3.597-4.737 4.638.26 1.042 3.272 0 9.033-3.125 1.889-1.953 1.612-2.75-.83-2.392l-3.466.879zm72.265-15.137c4.916-2.832 6.576-2.718 4.981.342-1.921 1.823-7.731 6.12-17.432 12.89-1.107 2.116-1.66 3.744-1.66 4.883 0 1.107 1.465 1.107 4.394 0 2.963-1.14 6.755-3.483 11.377-7.031.977.13 1.351.879 1.123 2.246-.195 1.335-2.294 3.027-6.298 5.078-3.972 2.018-7.194 3.174-9.668 3.467-2.442.26-3.776.016-4.004-.733-.196-.78 0-2.718.586-5.81L96.119 40.08c-1.79.39-2.62-.31-2.49-2.1 2.344-6.217 4.004-9.407 4.98-9.57 1.921-.13 2.474.928 1.661 3.174-2.963 3.874-2.963 4.932 0 3.174 12.239-5.86 21.923-12.028 29.052-18.506zm27.637.488c2.767-1.204 5.485-1.578 8.154-1.123 2.67.423 4.02 2.214 4.053 5.371 0 4.46-8.691 7.634-26.074 9.522-3.646 1.041-5.436 2.311-5.371 3.808.097 1.498.765 2.41 2.002 2.735a30.37 30.37 0 004.004.635c1.432.097 6.787-.766 16.064-2.588 9.277-1.856 13.851-2.49 13.721-1.905-.098.554-4.492 1.953-13.184 4.2-8.659 2.213-15.755 3.108-21.289 2.685-3.711-1.042-5.192-3.141-4.443-6.299l.39-2.197h-3.271c-.261-.781.293-1.497 1.66-2.148 1.4-.684 9.261-4.916 23.584-12.696zm-5.713 6.348c-10.124 4.33-9.635 5.436 1.465 3.32 8.952-2.213 13.428-4.118 13.428-5.713 0-1.595-1.953-2.18-5.86-1.758l-9.033 4.15zm22.266-7.422l46.972.928c1.27.879 1.156 1.79-.341 2.734-1.498.944-7.015 1.286-16.553 1.026l-8.154-.196c-2.084.13-7.504-.423-16.26-1.66 2.506 2.702 3.76 7.08 3.76 13.135 7.128-5.632 12.125-8.447 14.99-8.447 1.172.097 1.497.716.976 1.855l-20.654 15.04c-1.302-.034-1.937-.652-1.904-1.856l2.832-3.76c0-8.757-2.507-14.714-7.52-17.871-.097-.814.521-1.123 1.856-.928z" fill="#3A4143"/></svg>
